X:1
T:Many Mansions Up There
T:Many Mansions Up There
T:R. Frank Lehman
T:R. Frank Lehman, 1900
T:Public Domain Courtesy of the Cyber Hymnal™
C:R. Frank Lehman
Z:Public Domain
Z:Courtesy of the Cyber Hymnal™
%%score ( 1 2 ) ( 3 4 )
L:1/8
Q:1/4=110
M:4/4
K:Eb
V:1 treble 
V:2 treble 
V:3 bass 
V:4 bass 
V:1
 [B,E]2 | [EG]2 [EF]E [EG]2 [EB]2 | [Ec]2 [Ec]2 [EB]2 EE | [EG] [EG]3 [EG][EG] [DF]2 | E6 [B,E]2 | %5
w: 1.~Our|home- less and lone- ly|Sav- ior said, There are|ma- ny man- sions up|there; No|
w: 2.~My|heav- en- ly Fa- ther’s|house o’er- flows, With the|ma- ny man- sions up|there; The|
w: 3.~When|tired of my earth- ly|home I know There are|ma- ny man- sions up|there; Where|
w: 4.~O|wan- d’rers of earth op-|pressed with care, There are|ma- ny man- sions up|there; You’re|
 [EG]2 [EF]E [EG]2 [EB]2 | [Ec]2 [Ec]2 [EB]2 EE | [EG] [EG]3 [EG][EG] [DF]2 | E6 ||"^Refrain" BB | %10
w: place in the earth to|lay His head, Yet the|ma- ny man- sions up|there.||
w: joys of that place no|mor- tal knows, There are|ma- ny man- sions up|there.|There are|
w: death ne- ver comes nor|e- vils grow, There are|ma- ny man- sions up|there.||
w: wel- come to come with|us and share In those|ma- ny man- sions up|there.||
 [Ge]2 [Ge]2 [Af][Ae] [Ec]2 | B6 B2 | [Ge]2 [Bd][Ac] [GB]2 [FA][EG] | [DF]2 [Bd]>[Ac] [GB]2 [FA]2 | %14
w: ||||
w: ma- ny man- sions up|there (up|there), Which Je- sus has gone|to pre- pare (to pre-|
w: ||||
w: ||||
 [EG]2 [EG]2 [_DG]2 (FE) | [CA]2 [CA]2 !fermata![Ec]2 [Ec][Ec] | [EB] [Ee]2 [EG] [EG]2 [DF]2 | %17
w: |||
w: pare); There’s one for *|you and one for me,|If we trust Him to|
w: |||
w: |||
 E6 |] %18
w: |
w: take|
w: |
w: |
V:2
 x2 | x3 E x4 | x6 EE | x8 | E6 x2 | x3 E x4 | x6 EE | x8 | E6 || BB | x8 | E2 D2 E2 B2 | x8 | x8 | %14
 x6 _D2 | x8 | x8 | E6 |] %18
V:3
 [E,G,]2 | [E,B,]2 [E,A,][E,G,] [E,B,]2 [E,G,]2 | [A,,A,]2 [C,A,]2 [E,G,]2 [C,G,][C,G,] | %3
 [B,,B,] [B,,B,]3 [B,,B,][B,,B,] [B,,A,]2 | [E,G,]6 [E,G,]2 | %5
 [E,B,]2 [E,A,][E,G,] [E,B,]2 [E,G,]2 | [A,,A,]2 [C,A,]2 [E,G,]2 [C,G,][C,G,] | %7
 [B,,B,] [B,,B,]3 [B,,B,][B,,B,] [B,,A,]2 | [E,G,]6 || B,B, | [E,B,]2 [E,B,]2 [A,C][A,C] A,2 | %11
 [E,G,]2 [F,A,]2 [G,B,]2 B,2 | [E,B,]2 [E,E][E,E] [E,E]2 [D,B,][E,B,] | %13
 [B,,B,]2 [B,,B,]>[B,,B,] [B,,B,]2 [B,,B,]2 | [E,B,]2 [E,B,]2 [E,B,]2 (A,G,) | %15
 [A,,A,]2 [A,,A,]2 !fermata![A,,A,]2 [=A,,^F,][A,,F,] | %16
 [B,,G,] [B,,G,]2 [B,,B,] [B,,B,]2 [B,,A,]2 | [E,G,]6 |] %18
V:4
 x2 | x8 | x8 | x8 | x8 | x8 | x8 | x8 | x6 || B,B, | x6 A,2 | x6 B,2 | x8 | x8 | x6 E,2 | x8 | %16
 x8 | x6 |] %18

